X:1
T:AVE VERUM-Mozart
%%score 1 2 3 4
L:1/8
M:4/4
K:D
V:1 treble nm="S" snm="S"
V:2 treble nm="M" snm="M"
V:3 treble-8 nm="T" snm="T"
V:4 bass nm="B" snm="B"
V:1
 z4 z4 | z8 | A4 (d2 F2) | (A2 ^G2) =G4 | (G2 B2) (A2 G2) | (G2 F2) F4 | E6 E2 | F2 F2 G2 G2 | %8
w: ||A- ve _|a _ ve|ve _ rum _|cor _ pus|na- tum|de Ma- ri- a|
 (G4 F2) F2 | E8 | E6 A2 | (A2 ^G2) G4 | (E2 ^G4) B2 | (B2 A2) A2 A2 | (d8 | (d2) c2 B2) A2 | %16
w: Vir _ gi-|ne|Ve- re|pas _ sum|im _ mo-|la _ tum in|cru|_ _ ce pro|
 (A4 ^G2) G2 | A8 | z8 | z8 | z8 | A6 A2 | (A2 _B2) B4 | (_B2 d2) (=c2 B2) | (_B2 A2) A4 | G6 G2 | %26
w: ho _ mi-|ne||||Cu- jus|la _ tus|per _ fo _|ra _ tum|un- da|
 (G2 _B2) A2 G2 | (G4 =FE) F2 | E4 z4 | F6 F2 | (F2 E2) (D2 G2) | G6 G2 | (G2 F2) E2 A2 | A8 | %34
w: flu _ xit et|san _ _ gui-|ne|E- sto|no _ bis _|prae- gus|ta _ tum in|mor|
 A2 G2 A2 B2 | F4 E3 F | G4 G4 | d8- | d4 ^d4 | (e2 B2 c2 d2 | c2 BA d2) G2 | F4 E3 E | D8 |] %43
w: _ _ tis ex-|a _ mi-|ne in|mor|_ _||* * * tis ex|a _ mi-|ne|
V:2
 z8 | z8 | F4 F4 | E4 E4 | (E2 G2) (F2 E2) | (E2 D2) D4 | C6 C2 | D2 D2 E2 E2 | (E4 D2) D2 | C8 | %10
w: ||A- ve|a- ve|ve _ rum _|cor _ pus|na- tum|de Ma- ri- a|Vir _ gi-|ne|
 E6 E2 | E4 E4 | E6 ^G2 | ^G2 A2 A4 | z4 ^G4 | A4 F2 F2 | E6 E2 | E8 | z8 | z8 | z8 | E6 E2 | %22
w: Ve- re|pas- sum|im- mo-|la _ tum|in|cru- ce pro|ho- mi-|ne||||Cu- jus|
 E4 E4 | E6 E2 | (E2 =F2) F4 | D6 D2 | (E2 =F2) E2 E2 | (E4 DC) D2 | C4 z4 | D6 D2 | %30
w: la- tus|per- fo-|ra _ tum|un- da|flu _ xit cum|san _ _ gui-|ne|E- sto|
 (D2 C2) (B,2 E2) | E6 E2 | (E2 D2) C2 F2 | F8 | F2 G2 F2 E2 | D4 C3 C | D4 z4 | z4 F4 | G4 F4 | %39
w: no _ bis _|prae- gus|ta _ tum in|mor|_ _ tis ex-|a _ mi-|ne|in|mor _|
 E8- | E2 DC D2 D2 | D4 C3 C | D8 |] %43
w: _|* * * tis ex|a _ mi-|ne|
V:3
 z8 | z8 | A4 A4 | B4 B4 | A4 A4 | A4 A4 | A6 A2 | A2 A2 A2 A2 | A6 A2 | A8 | c6 c2 | (c2 d2) d4 | %12
w: ||A- ve|a- ve|ve- rum|cor- pus|na- tum|de Ma- ri- a|Vir- gi-|ne|Ve- re|pas _ sum|
 d6 d2 | d2 c2 c4 | z4 d4 | e4 d2 c2 | B6 B2 | c8 | z8 | z8 | z8 | c6 c2 | c6 =c2 | %23
w: im- mo-|la _ tum|in|cru- ce pro|ho- mi-|ne||||Cu- jus|la- tus|
 (=c2 _B2) (A2 G2) | (G2 A2) A4 | B6 B2 | (^c2 d2) e2 c2 | (c4 d2) =B2 | E4 z4 | z8 | B6 (B2 | %31
w: per _ fo _|ra _ tum|un- da|flu _ xit cum|san _ gui-|ne||E- sto|
 (B2 A2) (G2 c2)) | c6 c2 | c2 B2 A2 d2 | d4 d2 d2 | A6 A2 | G4 z4 | z4 =c4 | d4 =c4 | %39
w: no _ bis _|prae- gus-|ta _ tum in|mor- tis ex-|a- mi-|ne|in|mor _|
 B2 d2 ^c2 B2 | A4 A2 G2 | A4 G3 G | F8 |] %43
w: _ _ _ _|* tis ex|a _ mi-|ne|
V:4
 z8 | z8 | D,4 D,4 | D,4 D,4 | C,4 C,4 | D,4 D,4 | A,,6 A,,2 | D,2 D,2 C,2 C,2 | D,6 D,2 | A,,8 | %10
w: ||A- ve|a- ve|ve- rum|cor- pus|na- tum|de Ma- ri- a|Vir- gi-|ne|
 A,6 A,2 | (A,2 B,2) B,4 | z4 E,2 E,2 | ^E,2 F,2 F,4 | z4 B,,4 | C,4 D,2 D,2 | E,6 E,2 | A,,8 | %18
w: Ve- re|pas _ sum|Im- mo-|la _ tum|in|cru- ce pro|ho- mi-|ne|
 z8 | z8 | z8 | A,6 A,2 | A,2 G,2 G,4 | =C,6 C,2 | (=C,2 =F,2) F,4 | [=F,F,]4 =F,4 | %26
w: |||Cu- jus|la _ tus|per- fo-|ra _ tum|un- *|
 (E,2 D,2) C,2 A,,2 | (_B,,4 A,,2) ^G,,2 | A,,4 z4 | z8 | G,6 G,2 | (G,2 F,2) (E,2 A,2) | A,6 A,2 | %33
w: flu _ xit- et|san _ gui-|ne||E- sto|no _ bis _|prae- gus-|
 A,2 G,2 F,2 B,2 | B,4 A,2 ^G,2 | A,4 A,,4 | B,,4 z4 | z4 A,4 | _B,4 A,4 | ^G,8 | G,4 F,2 B,,2 | %41
w: ta _ tum in|mor- tis ex-|a- mi-|ne|in|mor _|_|* tis ex-|
 A,,6 A,,2 | D,8 |] %43
w: a- mi-|ne|

